packages/foundations/assets/icons/functional/images/transportation/ship_14_inverted.svg

<svg width="14" height="14" viewBox="0 0 14 14" fill="none" xmlns="http://www.w3.org/2000/svg">
<g clip-path="url(#clip0_2214_7272)">
<path fill-rule="evenodd" clip-rule="evenodd" d="M11.0547 10.5681C11.3514 10.8889 11.6292 11.077 11.8292 11.077C12.1578 11.077 12.4242 11.3434 12.4242 11.672C12.4242 12.0006 12.1578 12.267 11.8292 12.267C11.4072 12.267 11.001 12.1045 10.6105 11.7793C10.1874 12.1045 9.76278 12.267 9.33677 12.267C8.91076 12.267 8.49044 12.0991 8.0758 11.7632C7.63551 12.0991 7.21239 12.267 6.80643 12.267C6.40047 12.267 5.98966 12.1089 5.574 11.7926C5.21805 12.1089 4.83735 12.267 4.4319 12.267C4.02646 12.267 3.59399 12.0986 3.1345 11.7618C2.7956 12.0286 2.42716 12.1621 2.0292 12.1621C1.70059 12.1621 1.4342 11.8957 1.4342 11.5671C1.4342 11.2385 1.70059 10.9721 2.0292 10.9721C2.21156 10.9721 2.41676 10.8492 2.64481 10.6036C2.86476 10.3247 3.27847 10.2994 3.53077 10.5494C3.59627 10.6143 4.08654 11.077 4.38433 11.077C4.57679 11.077 4.79537 10.9291 5.04007 10.6333C5.25496 10.323 5.70069 10.2886 5.96061 10.5623C6.02031 10.6251 6.49368 11.0769 6.80643 11.077C7.09637 11.0772 7.5889 10.6259 7.64818 10.5632C7.88506 10.3127 8.28461 10.3153 8.51818 10.5689C8.5751 10.6307 9.0359 11.077 9.35688 11.077C9.5542 11.077 9.84392 10.9208 10.1877 10.561C10.4247 10.3129 10.8218 10.3162 11.0547 10.5681ZM8.8542 1.73291C9.09993 1.73291 9.31727 1.88342 9.40656 2.10662L9.6473 3.04891L4.81593 3.05385C4.52332 3.05385 4.26279 3.34088 4.26279 3.64422C4.26279 3.94755 4.55985 4.23891 4.81593 4.23891H9.9448L10.1933 5.23291H11.9703C12.3375 5.23291 12.6038 5.55666 12.5614 5.89916C12.5191 6.24166 11.6296 8.05688 10.9582 8.72538C10.7236 8.98633 10.5071 9.17914 10.3087 9.30381C10.011 9.49082 9.68019 9.60283 9.32083 9.60283C8.93854 9.60283 8.53286 9.44726 8.1038 9.13611C7.69996 9.55301 7.28862 9.76843 6.86979 9.78236C6.45097 9.79629 6.02044 9.60887 5.5782 9.22011C5.21945 9.59604 4.83735 9.784 4.4319 9.784C4.02646 9.784 3.61522 9.5937 3.1982 9.21311C2.82927 9.5937 2.43961 9.784 2.0292 9.784C1.72587 9.784 1.4342 9.534 1.4342 9.22011V2.32791C1.4342 2.02458 1.66122 1.73291 2.0292 1.73291H8.8542ZM9.05505 5.47159C8.66845 5.47159 8.35505 5.78499 8.35505 6.17159C8.35505 6.55819 8.66845 6.87159 9.05505 6.87159C9.44165 6.87159 9.75505 6.55819 9.75505 6.17159C9.75505 5.78499 9.44165 5.47159 9.05505 5.47159ZM6.25505 5.47159C5.86845 5.47159 5.55505 5.78499 5.55505 6.17159C5.55505 6.55819 5.86845 6.87159 6.25505 6.87159C6.64165 6.87159 6.95505 6.55819 6.95505 6.17159C6.95505 5.78499 6.64165 5.47159 6.25505 5.47159ZM3.45505 5.47159C3.06845 5.47159 2.75505 5.78499 2.75505 6.17159C2.75505 6.55819 3.06845 6.87159 3.45505 6.87159C3.84165 6.87159 4.15505 6.55819 4.15505 6.17159C4.15505 5.78499 3.84165 5.47159 3.45505 5.47159Z" fill="#1A1C1F"/>
</g>
<defs>
<clipPath id="clip0_2214_7272">
<rect width="14" height="14" fill="white"/>
</clipPath>
</defs>
</svg>

<svg xmlns="http://www.w3.org/2000/svg" width="14" height="14" fill="none"><g clip-path="url(#a)"><path fill="#1A1C1F" fill-rule="evenodd" d="M11.055 10.568c.296.32.574.509.774.509a.595.595 0 0 1 0 1.19q-.633 0-1.219-.488-.634.488-1.273.488-.64 0-1.261-.504-.66.504-1.27.504-.608 0-1.232-.474-.534.474-1.142.474t-1.298-.505a1.75 1.75 0 0 1-1.105.4.595.595 0 0 1 0-1.19q.274 0 .616-.368a.595.595 0 0 1 .886-.055c.065.065.556.528.853.528q.289 0 .656-.444a.595.595 0 0 1 .92-.07c.06.062.534.514.846.514.29 0 .783-.451.842-.514a.595.595 0 0 1 .87.006c.057.062.518.508.839.508.197 0 .487-.156.83-.516a.595.595 0 0 1 .868.007m-2.2-8.835c.245 0 .462.15.552.374l.24.942-4.831.005c-.293 0-.553.287-.553.59 0 .304.297.595.553.595h5.129l.248.994h1.777c.367 0 .634.324.591.666-.042.343-.931 2.158-1.603 2.826a3.2 3.2 0 0 1-.65.579 1.84 1.84 0 0 1-.987.299q-.573 0-1.217-.467-.606.625-1.234.646-.629.021-1.292-.562-.538.564-1.146.564-.609 0-1.234-.57-.553.57-1.169.57c-.303 0-.595-.25-.595-.564V2.328c0-.303.227-.595.595-.595zm.2 3.739a.7.7 0 1 0 0 1.4.7.7 0 0 0 0-1.4m-2.8 0a.7.7 0 1 0 0 1.4.7.7 0 0 0 0-1.4m-2.8 0a.7.7 0 1 0 0 1.4.7.7 0 0 0 0-1.4" clip-rule="evenodd"/></g><defs><clipPath id="a"><path fill="#fff" d="M0 0h14v14H0z"/></clipPath></defs></svg>
